X: 35500
T: Ruby's
R: reel
M: 4/4
K: Gmajor
"G"~G3B e2dB|"Am"~A3g gfef|"C"gzeg dBGA|"D"AGAB GEDE|
"G"~G3B eBdB|"Am"~A3g gfef|"C"gzeg dBGA|"D"AGAB Gded|
"G"BGG2 dedB|"Am"~A3g gfef|"C"gzeg dBGA|"D"AGAB GEE2|
"G"~G3B eBdB|"Am"~A3g gfef|"C"gzeg dBGA|"D"AGBd "Em"e4-|
"Em"egfg edBA|"G"BDGB "D/F#"Aded|"Em"Bgfg efgz|"D"~f3a "Bm"bfaf|
"Em"Bgfg edBA|"G"BDGB "D/F#"Aded|"Em"BGG2 "D"Bd ed|"Bm"B2AB GEE2|
"Em"Ggfg edBA|"G"BDGB "D/F#"Aded|"Em"Bgfg efgz|"D"~f3a "Bm"bfaf|
"Em"Bgfg edBA|"G"BDGB "D/F#"Aded|"Em"BGG2 "D"Bd ed|"Bm"B2AB GEDE||

